X:33
T:Golden Cross. JJo8.033, The
B:J.Johnson Choice Collection Vol 8 1758
Z:vmp.Simon Wilson 2013 www.village-music-project.org.uk
M:C|
L:1/8
Q:1/2=70
K:Gm
|:(G/A/)|BGG,G"^tr"G3(A/B/)|cAA,A"^tr"A3(B/c/)|dBAG {cd}e2dc|dBAG A^FED|
G,GBG dBAG|^FAce dg^fa|gbag af=ed|g=ed^cd3:|
|:(d/e/)|f(g/a/) bg{g}f3g|fdcB{B}A3G|FB/c/ dB Aceg|
fdecB3(G/A/)|BG^FG"^tr"G3(A/B/)|cdec{B}A3(B/c/)|dBAG ecBA|
dBAG A^FED|G,GBG dBAG|^FAce dg^fa|gedc dBAG|cAG^FG3:|
